X: 21073
M: 2/4
L: 1/16
K: G
dd !segno!|!f!\
d2^c2d2BB | B2^A2B2cc | A2^G2A2B2 | GDEF GABc |\
d2^c2d2BB | B2^A2B2cc | A2^G2A2B2 | [1 G2z2 g2dd :|[2 G2z2 g2 |]
K: D


